app/images/icons/service.svg

<svg width="58" height="59" viewBox="0 0 58 59" fill="none" xmlns="http://www.w3.org/2000/svg">
<path d="M35.5438 28.3628V20.8516H34.1826L28.4673 28.4365L28.6149 29.1828C28.6368 29.2756 28.6873 29.3535 28.7665 29.4164C28.8459 29.4794 28.9402 29.5108 29.0494 29.5108H34.2564V32.6022H35.5437V29.5109H37.0033C37.1126 29.5109 37.1934 29.4807 37.2453 29.4207C37.2972 29.3606 37.3232 29.2869 37.3232 29.1993V28.3628H35.5438V28.3628ZM34.2686 23.0574C34.2604 23.2214 34.2563 23.3746 34.2563 23.5167V28.3629H30.0497L34.3218 22.5491C34.2946 22.7239 34.2767 22.8936 34.2686 23.0574Z" fill="#2A364E"/>
<path d="M27.1798 31.355C27.0869 31.2622 26.9611 31.2157 26.8026 31.2157H22.8666C22.659 31.2157 22.4429 31.2335 22.2188 31.2689C21.9948 31.3044 21.7734 31.3524 21.5546 31.4124L24.646 28.2473C24.974 27.9138 25.2842 27.5872 25.5767 27.2674C25.8692 26.9476 26.1275 26.6169 26.3516 26.2752C26.5756 25.9334 26.7534 25.5768 26.8846 25.205C27.0158 24.8334 27.0814 24.4287 27.0814 23.9914C27.0814 23.4775 26.9912 23.0183 26.8108 22.6139C26.6304 22.2094 26.383 21.8662 26.0687 21.5848C25.7544 21.3033 25.3813 21.0887 24.9494 20.9411C24.5175 20.7935 24.053 20.7197 23.5554 20.7197C23.0525 20.7197 22.5837 20.7921 22.1491 20.9371C21.7144 21.082 21.3291 21.2937 20.9928 21.5726C20.6567 21.8514 20.3793 22.1972 20.1605 22.6099C19.9418 23.0225 19.7942 23.497 19.7177 24.0326L20.4802 24.1638C20.5185 24.1693 20.5526 24.1734 20.5827 24.1761C20.6129 24.1788 20.6415 24.1802 20.6689 24.1802C20.8109 24.1802 20.9258 24.1447 21.0133 24.0736C21.1008 24.0025 21.1664 23.8876 21.2101 23.7292C21.2648 23.4723 21.3591 23.2372 21.493 23.024C21.6268 22.8108 21.7908 22.6263 21.9849 22.4705C22.1791 22.3147 22.4017 22.1931 22.6533 22.1056C22.9049 22.0181 23.1781 21.9745 23.4733 21.9745C23.7685 21.9745 24.0447 22.0169 24.3015 22.1015C24.5584 22.1862 24.7826 22.3133 24.9739 22.4828C25.1652 22.6524 25.3157 22.8668 25.425 23.1265C25.5342 23.3862 25.5889 23.6882 25.5889 24.0326C25.5889 24.3771 25.5397 24.7009 25.4413 25.0042C25.3429 25.3076 25.2021 25.6068 25.0191 25.902C24.836 26.1972 24.6158 26.491 24.359 26.7835C24.1021 27.0761 23.8178 27.3806 23.5061 27.6979L19.7423 31.478C19.6494 31.5709 19.5824 31.6722 19.5415 31.7814C19.5005 31.8907 19.48 31.9973 19.48 32.1012V32.6014H27.3192V31.7158C27.3192 31.5682 27.2726 31.4478 27.1798 31.355Z" fill="#2A364E"/>
<path d="M47.4269 20.2114C47.2527 19.7937 46.7726 19.596 46.3544 19.7705C45.9364 19.9449 45.739 20.425 45.9134 20.843C46.8733 23.1432 47.36 25.5849 47.36 28.1C47.36 38.4995 38.8993 46.96 28.5 46.96C18.1006 46.96 9.63992 38.4995 9.63992 28.1C9.63992 17.7005 18.1006 9.23997 28.5 9.23997C30.3949 9.23997 32.2624 9.52224 34.055 10.074L29.7299 12.571C29.3377 12.7974 29.2034 13.2988 29.4299 13.691C29.5816 13.9541 29.8573 14.1012 30.1408 14.1012C30.2799 14.1012 30.4208 14.0657 30.5499 13.9912L36.2311 10.7111C36.6233 10.4847 36.7576 9.98326 36.5312 9.59108L33.2512 3.91007C33.025 3.5179 32.5234 3.38357 32.1312 3.61001C31.739 3.83645 31.6047 4.3379 31.8311 4.73007L33.9046 8.32157C32.1506 7.8433 30.3368 7.60005 28.5 7.60005C17.1962 7.60005 8 16.7964 8 28.1001C8 39.4038 17.1961 48.6001 28.5 48.6001C39.8039 48.6001 49 39.4038 49 28.1001C49 25.367 48.4708 22.7128 47.4269 20.2114Z" fill="#2A364E"/>
</svg>

<svg width="58" height="59" fill="none" xmlns="http://www.w3.org/2000/svg"><path d="M35.54 28.36v-7.5h-1.36l-5.71 7.58.14.74c.03.1.08.17.16.24.08.06.17.1.28.1h5.2v3.08h1.3v-3.09H37c.11 0 .2-.03.25-.09a.33.33 0 0 0 .07-.22v-.84h-1.78Zm-1.27-5.3-.01.46v4.84h-4.21l4.27-5.81c-.03.17-.04.34-.05.5ZM27.18 31.36a.51.51 0 0 0-.38-.14h-3.93a4.15 4.15 0 0 0-1.32.2l3.1-3.17.93-.98c.29-.32.55-.65.77-1 .23-.34.4-.7.53-1.07a3.62 3.62 0 0 0-.07-2.59 3 3 0 0 0-1.86-1.67 4.42 4.42 0 0 0-2.8 0 3.4 3.4 0 0 0-1.99 1.67c-.22.41-.37.89-.44 1.42l.76.13a1.96 1.96 0 0 0 .19.02c.14 0 .26-.04.34-.1a.65.65 0 0 0 .2-.35 2.16 2.16 0 0 1 1.44-1.62 2.63 2.63 0 0 1 1.65 0 1.75 1.75 0 0 1 1.12 1.02c.11.26.17.56.17.9 0 .35-.05.67-.15.97-.1.3-.24.6-.42.9-.18.3-.4.6-.66.88-.26.3-.54.6-.85.92l-3.77 3.78a.85.85 0 0 0-.26.62v.5h7.84v-.88a.49.49 0 0 0-.14-.36Z" fill="#2A364E"/><path d="M47.43 20.21a.82.82 0 1 0-1.52.63A18.88 18.88 0 0 1 28.5 46.96 18.88 18.88 0 0 1 9.64 28.1a18.88 18.88 0 0 1 24.41-18.03l-4.32 2.5a.82.82 0 1 0 .82 1.42l5.68-3.28c.4-.23.53-.73.3-1.12l-3.28-5.68a.82.82 0 1 0-1.42.82l2.07 3.6A20.52 20.52 0 0 0 8 28.1c0 11.3 9.2 20.5 20.5 20.5a20.52 20.52 0 0 0 18.93-28.39Z" fill="#2A364E"/></svg>
